X: 1
T:N°85 Anglaisse
C:trad
O:Belgium
S:JAMIN manuscript page 51-052
Z:ABC transcription Olivier VIENNE troubadourwallon@gmail.com
M:2/4
L:1/16
K:Gmaj
d2|d2Bc d2ga|bagf edcB|dcAF DFAF|GABc ^cd
ed|d2Bc d2ga|bagf edcB|dcAF DDEF|A4 G2:|
|:AB|cBcB cedc|BABA BdcB|A^GAG AcBA|GABc ^cd
ed|cBcB cedc|BABA BdcB|A^GAG AcBA|G2G2 G2"2fois":|]:





